X: 974
T: Hasta Kalbimde Yanan Derdi...
C: Kaptanzâde Ali Rıza Bey
O: Turkey
F: http://compmusic.upf.edu/node/140
N: segah--sarki--kapali_curcuna--hasta_kalbimde--kaptanzade_ali_riza_bey
N: makam= segah
N: form= sarki
N: usul= kapali_curcuna = 10/8
M: 10/8
L: 1/16
K: C _1/4B _1/4e ^f 
Q: 1/4=204
%%MIDI tuningsystem comma53
z4 B2c4d4d2 c2B2  | d16-d4  | z4 d2e2 f2g2 f2e4g2  | f16-f4  | \
w:   |   |   |   | 
z4 c'2_b2 a2a2 g2f4e2  | 
w:   | 
z4 _b2a2 g2f2 e2d4c2  | d2e2 =f2e2 d2d2 c2c4B2  | B16-B4  | \
w:   |   |   | 
z4 B2c4d4d2 c2B2  | 
w:   | 
d16-d4  | z4 d2e2 f2g2 f2e4g2  | f16-f4  | \
w:   |   |   | 
z4 c'2_b2 a2a2 g2f4e2  | z4 _b2a2 g2f2 e2d4c2  | 
w:   |   | 
d2e2 =f2e2 d2d2 c2c4B2  | B16-B4  | z4 f2g4g2 f2e4d2  | \
w:   |   |  Has *  ta   | 
d4 c2c2 B2B2 ^A2B6  | 
w:  kal *  bim *  de   | 
z4 e2e12d2  | d2c2 B2c2 ^c2d8z2  | z4 a2g12f2  | \
w:  ya nan   |  der *  *  *  *  di   |  ni çin   | 
f4 e2e2 d2d2 e2f2 e2d2  | 
w:  an *  la *  ma  | 
d16-d4  | d4 e2d2 c2B2 ^A2B6  | z4 f2g4g2 f2e4d2  | \
w:  dın    |  SAZ  |  Has *  ta   | 
d4 c2c2 B2B2 ^A2B6  | 
w:  kal *  bim *  de   | 
z4 e2e12d2  | d2c2 B2c2 ^c2d8z2  | z4 a2g12f2  | \
w:  ya nan   |  der *  *  *  *  di   |  ni çin   | 
f4 e2e2 d2d2 e2f2 e2d2  | 
w:  an *  la *  ma  | 
d16-d4  | d4 e2d2 c2B2 c2d6  | z4 f2g4g2 f2a4g2  | \
w:  dın    |  SAZ  |  Se ni  Ley  | 
f4 e2e2 d2d8-d2  | 
w:  lâ  *  di *  ye   | 
=f4 _2/4e4 d2d2 c2c4d2  | e18z2  | z4 B2c4c2 _2/4B2B4A2  | \
w:  sev *  *  *  dim  |  di   |  si yah   | 
A14B2 A2G2  | d4 c2c2 B2B2 ^A2B6  | 
w:  göz  |  lü  *  ka *  dın    | 
z4 e2d2 c2B2 c2d6  | z4 f2g4g2 f2a4g2  | \
w:  SAZ  |  Se ni  Ley  | 
f4 e2e2 d2d8-d2  | =f4 _2/4e4 d2d2 c2c4d2  | 
w:  lâ  *  di *  ye   |  sev *  *  *  dim  | 
e18z2  | z4 B2c4c2 _2/4B2B4A2  | A14B2 A2G2  | \
w:  di   |  si yah   |  göz  | 
d4 c2c2 B2B2 ^A2B6  | z4 g2^9/8f2 =e2e2 f2g6  | 
w:  lü  *  ka *  dın    |  SAZ  | 
z4 ^9/8f2g4g2 f2g6  | ^9/8f4 =e2e2 f2g8z2  | \
w:  Hıç *  kı *  ran   |  gön *  lü *  me   | 
c'4 _b2b2 a2a2 g2g4f2  | f16-f4  | 
w:  hüs *  *  *  ra *  *  nı  |  ma   | 
z4 a2g12f2  | f4 e2e2 d2d2 e2f2 e2d2  | d16-d4  | \
w:  hiç   |  ağ *  la *  ma  |  dın    | 
d4 e2d2 c2B2 c2d6  | 
w:  SAZ  | 
z4 f2g4g2 f2a4g2  | f4 e2e2 d2d8-d2  | \
w:  Se ni  Ley  |  lâ  *  di *  ye   | 
=f4 _2/4e4 d2d2 c2c4d2  | e18z2  | 
w:  sev *  *  *  dim  |  di   | 
z4 B2c4c2 _2/4B2B4A2  | A14B2 A2G2  | \
w:  si yah   |  göz  | 
d4 c2c2 B2B2 ^A2B6  | z4 e2d2 c2B2 c2d6  | 
w:  lü  *  ka *  dın    |  SAZ  | 
z4 f2g4g2 f2a4g2  | f4 e2e2 d2d8-d2  | \
w:  Se ni  Ley  |  lâ  *  di *  ye   | 
=f4 _2/4e4 d2d2 c2c4d2  | e18z2  | 
w:  sev *  *  *  dim  |  di   | 
z4 B2c4c2 _2/4B2B4A2  | A14B2 A2G2  | \
w:  si yah   |  göz  | 
d4 c2c2 B2B2 ^A2B6  | B4 g2f2 e2d2 c2B6  | 
w:  lü  *  ka *  dın    |  dın   SAZ KARAR  | 
|


